public/assets/images/why-choose/07.svg

<svg width="60" height="60" viewBox="0 0 60 60" fill="none" xmlns="http://www.w3.org/2000/svg">
<path d="M9.34998 42.1089C5.55907 42.1089 2.47461 39.0244 2.47461 35.2335V24.0869C2.47461 20.2954 5.55907 17.2109 9.34998 17.2109C9.81873 17.2109 10.199 17.5912 10.199 18.06C10.199 18.5287 9.81873 18.9091 9.34998 18.9091C6.49547 18.9091 4.17272 21.2318 4.17272 24.0869V35.2335C4.17272 38.088 6.49547 40.4107 9.34998 40.4107C9.81873 40.4107 10.199 40.7911 10.199 41.2598C10.199 41.7286 9.81873 42.1089 9.34998 42.1089Z" fill="#615EFC"/>
<path d="M30.7124 21.0214C30.2437 21.0214 29.8634 20.6411 29.8634 20.1723V9.40654C29.8634 6.54761 27.5373 4.22155 24.6784 4.22155C23.2992 4.22155 22.0008 4.7605 21.0224 5.73891C20.0451 6.72616 19.505 8.03014 19.505 9.40654C19.505 9.87529 19.1247 10.2556 18.6559 10.2556C18.1872 10.2556 17.8069 9.87529 17.8069 9.40654C17.8069 7.57964 18.5216 5.85167 19.8184 4.54105C21.1207 3.23872 22.8459 2.52344 24.6784 2.52344C28.4737 2.52344 31.5615 5.61122 31.5615 9.40654V20.1723C31.5615 20.6411 31.1812 21.0214 30.7124 21.0214Z" fill="#615EFC"/>
<path d="M12.8848 21.0625C12.8047 21.0625 12.7234 21.0514 12.6427 21.0276C9.66546 20.1438 7.58594 17.3545 7.58594 14.2451C7.58594 10.3448 10.7594 7.17188 14.6598 7.17188C18.5601 7.17188 21.733 10.3448 21.733 14.2451C21.733 14.7139 21.3527 15.0942 20.884 15.0942C20.4152 15.0942 20.0349 14.7139 20.0349 14.2451C20.0349 11.2812 17.6237 8.86999 14.6598 8.86999C11.6958 8.86999 9.28405 11.2812 9.28405 14.2451C9.28405 16.6088 10.8639 18.7281 13.1258 19.3992C13.5752 19.5329 13.8317 20.0056 13.6979 20.455C13.5885 20.8237 13.2507 21.0625 12.8848 21.0625Z" fill="#615EFC"/>
<path d="M23.6703 57.4706C19.8816 57.4706 16.7988 54.3878 16.7988 50.5991C16.7988 50.1304 17.1791 49.7501 17.6479 49.7501C18.1166 49.7501 18.4969 50.1304 18.4969 50.5991C18.4969 53.452 20.8175 55.7725 23.6703 55.7725C25.06 55.7725 26.3573 55.2347 27.3236 54.2585C28.3064 53.2856 28.8443 51.9882 28.8443 50.5991V39.7084C28.8443 39.2397 29.2246 38.8594 29.6933 38.8594C30.1621 38.8594 30.5424 39.2397 30.5424 39.7084V50.5991C30.5424 52.4448 29.826 54.1706 28.5248 55.4591C27.2434 56.7542 25.5171 57.4706 23.6703 57.4706Z" fill="#615EFC"/>
<path d="M13.0442 53.4043C9.14385 53.4043 5.97095 50.2314 5.97095 46.3311C5.97095 42.4307 9.14385 39.2578 13.0442 39.2578C13.513 39.2578 13.8933 39.6381 13.8933 40.1069C13.8933 40.5756 13.513 40.9559 13.0442 40.9559C10.0802 40.9559 7.66906 43.3671 7.66906 46.3311C7.66906 49.295 10.0802 51.7062 13.0442 51.7062C15.2663 51.7062 17.2298 50.3707 18.0457 48.3034C18.2187 47.8667 18.7134 47.6544 19.1474 47.8252C19.5835 47.9977 19.7974 48.4908 19.6255 48.9269C18.5515 51.6471 15.9684 53.4043 13.0442 53.4043Z" fill="#615EFC"/>
<path d="M30.7105 40.6767C29.3623 40.6767 28.0544 40.1974 27.0273 39.3268C26.6697 39.0234 26.6255 38.4877 26.9284 38.1301C27.2313 37.7713 27.7664 37.7277 28.1252 38.0311C28.846 38.642 29.7641 38.9786 30.7105 38.9786C32.916 38.9786 34.7103 37.1843 34.7103 34.9787V25.0266C34.7103 22.8211 32.916 21.0262 30.7105 21.0262C29.6823 21.0262 28.705 21.4159 27.9582 22.1229C27.6177 22.4452 27.0804 22.4303 26.7582 22.0903C26.4353 21.7498 26.4503 21.2125 26.7908 20.8903C27.8543 19.8831 29.2462 19.3281 30.7105 19.3281C33.8524 19.3281 36.4084 21.8847 36.4084 25.0266V34.9787C36.4084 38.1207 33.8524 40.6767 30.7105 40.6767Z" fill="#615EFC"/>
<path d="M47.5808 36.8477C47.3636 36.8477 47.1463 36.7648 46.9805 36.599L44.0823 33.7014C43.8518 33.4709 43.5345 33.3387 43.2112 33.3387H35.558C35.0893 33.3387 34.709 32.9584 34.709 32.4897C34.709 32.0209 35.0893 31.6406 35.558 31.6406H43.2112C43.9823 31.6406 44.7374 31.954 45.2835 32.5013L48.1811 35.3984C48.5128 35.73 48.5128 36.2673 48.1811 36.599C48.0153 36.7648 47.7981 36.8477 47.5808 36.8477Z" fill="#615EFC"/>
<path d="M35.92 14.827H30.7123C30.2436 14.827 29.8633 14.4467 29.8633 13.978C29.8633 13.5092 30.2436 13.1289 30.7123 13.1289H35.92C36.2439 13.1289 36.5645 12.9979 36.7995 12.7691L41.5234 8.04562C41.8551 7.71396 42.3924 7.71396 42.7241 8.04562C43.0557 8.37728 43.0557 8.91458 42.7241 9.24624L37.9918 13.978C37.434 14.5208 36.6817 14.827 35.92 14.827Z" fill="#615EFC"/>
<path d="M40.3002 27.8198C39.8315 27.8198 39.4512 27.4395 39.4512 26.9707V22.7818C39.4512 21.9963 39.7679 21.2379 40.3196 20.7017L41.9619 19.0478C42.2919 18.7145 42.8303 18.7134 43.1625 19.0434C43.4952 19.374 43.4975 19.9113 43.1669 20.244L41.5141 21.9084C41.2781 22.1378 41.1493 22.4524 41.1493 22.7818V26.9707C41.1493 27.4395 40.769 27.8198 40.3002 27.8198Z" fill="#615EFC"/>
<path d="M43.9416 10.214C41.9952 10.214 40.4121 8.6309 40.4121 6.68514C40.4121 4.73939 41.9952 3.15625 43.9416 3.15625C45.8873 3.15625 47.4704 4.73939 47.4704 6.68514C47.4704 8.6309 45.8873 10.214 43.9416 10.214ZM43.9416 4.85436C42.9316 4.85436 42.1102 5.67578 42.1102 6.68514C42.1102 7.6945 42.9316 8.51592 43.9416 8.51592C44.9509 8.51592 45.7723 7.6945 45.7723 6.68514C45.7723 5.67578 44.9509 4.85436 43.9416 4.85436Z" fill="#615EFC"/>
<path d="M47.0601 27.8266H35.558C35.0893 27.8266 34.709 27.4463 34.709 26.9776C34.709 26.5088 35.0893 26.1285 35.558 26.1285H47.0601C47.4039 26.1285 47.7334 25.9848 47.9644 25.7344L51.6912 21.7241C52.0096 21.3802 52.548 21.3614 52.8913 21.6804C53.2346 21.9993 53.2545 22.5366 52.935 22.8804L49.2104 26.888C48.6615 27.4834 47.8771 27.8266 47.0601 27.8266Z" fill="#615EFC"/>
<path d="M53.9996 23.7375C52.0538 23.7375 50.4707 22.1543 50.4707 20.2086C50.4707 18.2628 52.0538 16.6797 53.9996 16.6797C55.9453 16.6797 57.5285 18.2628 57.5285 20.2086C57.5285 22.1543 55.9453 23.7375 53.9996 23.7375ZM53.9996 18.3778C52.9902 18.3778 52.1688 19.1992 52.1688 20.2086C52.1688 21.2179 52.9902 22.0394 53.9996 22.0394C55.009 22.0394 55.8304 21.2179 55.8304 20.2086C55.8304 19.1992 55.009 18.3778 53.9996 18.3778Z" fill="#615EFC"/>
<path d="M49.564 41.3468C47.6183 41.3468 46.0352 39.7637 46.0352 37.818C46.0352 35.8722 47.6183 34.2891 49.564 34.2891C51.5098 34.2891 53.0929 35.8722 53.0929 37.818C53.0929 39.7637 51.5098 41.3468 49.564 41.3468ZM49.564 35.9872C48.5547 35.9872 47.7333 36.8086 47.7333 37.818C47.7333 38.8273 48.5547 39.6487 49.564 39.6487C50.5734 39.6487 51.3948 38.8273 51.3948 37.818C51.3948 36.8086 50.5734 35.9872 49.564 35.9872Z" fill="#615EFC"/>
<path d="M44.2945 21.1203C42.3488 21.1203 40.7656 19.5371 40.7656 17.5914C40.7656 15.6456 42.3488 14.0625 44.2945 14.0625C46.2403 14.0625 47.8234 15.6456 47.8234 17.5914C47.8234 19.5371 46.2403 21.1203 44.2945 21.1203ZM44.2945 15.7606C43.2852 15.7606 42.4637 16.582 42.4637 17.5914C42.4637 18.6008 43.2852 19.4222 44.2945 19.4222C45.3039 19.4222 46.1253 18.6008 46.1253 17.5914C46.1253 16.582 45.3039 15.7606 44.2945 15.7606Z" fill="#615EFC"/>
<path d="M38.9758 52.2411C38.7586 52.2411 38.5413 52.1582 38.3755 51.9923L36.7117 50.3285C36.165 49.7818 35.8516 49.0267 35.8516 48.2562V44.0678C35.8516 43.5991 36.2319 43.2188 36.7006 43.2188C37.1694 43.2188 37.5497 43.5991 37.5497 44.0678V48.2562C37.5497 48.5795 37.6818 48.8974 37.9123 49.1279L39.5761 50.7917C39.9078 51.1234 39.9078 51.6607 39.5761 51.9923C39.4103 52.1582 39.1931 52.2411 38.9758 52.2411Z" fill="#615EFC"/>
<path d="M48.7231 49.5922C48.4953 49.5922 48.2687 49.501 48.1012 49.3213L44.365 45.3027C44.1317 45.0556 43.8078 44.9169 43.4585 44.9169H29.6928C29.2241 44.9169 28.8438 44.5366 28.8438 44.0678C28.8438 43.5991 29.2241 43.2188 29.6928 43.2188H43.4585C44.2793 43.2188 45.0411 43.5465 45.6038 44.1408L49.3449 48.1649C49.6644 48.5082 49.6445 49.0455 49.3013 49.365C49.1376 49.517 48.9304 49.5922 48.7231 49.5922Z" fill="#615EFC"/>
<path d="M50.4 54.3625C48.4542 54.3625 46.8711 52.7793 46.8711 50.8336C46.8711 48.8878 48.4542 47.3047 50.4 47.3047C52.3457 47.3047 53.9289 48.8878 53.9289 50.8336C53.9289 52.7793 52.3457 54.3625 50.4 54.3625ZM50.4 49.0028C49.3906 49.0028 48.5692 49.8242 48.5692 50.8336C48.5692 51.8429 49.3906 52.6644 50.4 52.6644C51.4093 52.6644 52.2308 51.8429 52.2308 50.8336C52.2308 49.8242 51.4093 49.0028 50.4 49.0028Z" fill="#615EFC"/>
<path d="M40.6949 56.988C38.7492 56.988 37.166 55.4049 37.166 53.4591C37.166 51.5128 38.7492 49.9297 40.6949 49.9297C42.6412 49.9297 44.2244 51.5128 44.2244 53.4591C44.2244 55.4049 42.6412 56.988 40.6949 56.988ZM40.6949 51.6278C39.6855 51.6278 38.8641 52.4492 38.8641 53.4591C38.8641 54.4685 39.6855 55.2899 40.6949 55.2899C41.7048 55.2899 42.5262 54.4685 42.5262 53.4591C42.5262 52.4492 41.7048 51.6278 40.6949 51.6278Z" fill="#615EFC"/>
<path d="M17.6443 35.5939C17.1755 35.5939 16.7952 35.2136 16.7952 34.7449V27.7341C16.7952 26.4566 15.7554 25.4169 14.478 25.4169C13.2005 25.4169 12.1608 26.4566 12.1608 27.7341V34.7449C12.1608 35.2136 11.7805 35.5939 11.3117 35.5939C10.843 35.5939 10.4626 35.2136 10.4626 34.7449V27.7341C10.4626 25.5202 12.2641 23.7188 14.478 23.7188C16.6918 23.7188 18.4933 25.5202 18.4933 27.7341V34.7449C18.4933 35.2136 18.113 35.5939 17.6443 35.5939Z" fill="#615EFC"/>
<path d="M17.6443 31.0653H11.3117C10.843 31.0653 10.4626 30.685 10.4626 30.2162C10.4626 29.7475 10.843 29.3672 11.3117 29.3672H17.6443C18.113 29.3672 18.4933 29.7475 18.4933 30.2162C18.4933 30.685 18.113 31.0653 17.6443 31.0653Z" fill="#615EFC"/>
<path d="M22.5597 35.5889C22.091 35.5889 21.7107 35.2086 21.7107 34.7399V24.8569C21.7107 24.3881 22.091 24.0078 22.5597 24.0078C23.0285 24.0078 23.4088 24.3881 23.4088 24.8569V34.7399C23.4088 35.2086 23.0285 35.5889 22.5597 35.5889Z" fill="#615EFC"/>
<path d="M24.3375 25.7059H20.7805C20.3117 25.7059 19.9314 25.3256 19.9314 24.8569C19.9314 24.3881 20.3117 24.0078 20.7805 24.0078H24.3375C24.8063 24.0078 25.1866 24.3881 25.1866 24.8569C25.1866 25.3256 24.8063 25.7059 24.3375 25.7059Z" fill="#615EFC"/>
<path d="M24.3375 35.5887H20.7805C20.3117 35.5887 19.9314 35.2084 19.9314 34.7397C19.9314 34.2709 20.3117 33.8906 20.7805 33.8906H24.3375C24.8063 33.8906 25.1866 34.2709 25.1866 34.7397C25.1866 35.2084 24.8063 35.5887 24.3375 35.5887Z" fill="#615EFC"/>
</svg>

<svg xmlns="http://www.w3.org/2000/svg" width="60" height="60" fill="none" viewBox="0 0 60 60"><path fill="#615efc" d="M9.35 42.109a6.883 6.883 0 0 1-6.875-6.876V24.088A6.884 6.884 0 0 1 9.35 17.21a.85.85 0 0 1 0 1.698 5.184 5.184 0 0 0-5.177 5.178v11.147A5.183 5.183 0 0 0 9.35 40.41a.85.85 0 0 1 0 1.698m21.362-21.087a.85.85 0 0 1-.849-.849V9.407a5.19 5.19 0 0 0-5.185-5.185 5.14 5.14 0 0 0-3.656 1.517 5.2 5.2 0 0 0-1.517 3.668.85.85 0 0 1-1.698 0c0-1.827.715-3.555 2.011-4.866a6.83 6.83 0 0 1 4.86-2.018 6.89 6.89 0 0 1 6.883 6.884v10.765a.85.85 0 0 1-.849.85"/><path fill="#615efc" d="M12.885 21.063a1 1 0 0 1-.242-.035c-2.978-.884-5.057-3.673-5.057-6.783 0-3.9 3.173-7.073 7.074-7.073s7.073 3.173 7.073 7.073a.85.85 0 0 1-1.698 0A5.38 5.38 0 0 0 14.66 8.87a5.38 5.38 0 0 0-5.376 5.375 5.41 5.41 0 0 0 3.842 5.154.85.85 0 0 1-.241 1.663M23.67 57.47a6.88 6.88 0 0 1-6.87-6.87.85.85 0 0 1 1.698 0 5.18 5.18 0 0 0 5.173 5.172 5.1 5.1 0 0 0 3.654-1.514 5.1 5.1 0 0 0 1.52-3.659V39.71a.85.85 0 0 1 1.698 0V50.6a6.8 6.8 0 0 1-2.017 4.86 6.78 6.78 0 0 1-4.855 2.012"/><path fill="#615efc" d="M13.044 53.404a7.08 7.08 0 0 1-7.073-7.073c0-3.9 3.173-7.073 7.073-7.073a.85.85 0 0 1 0 1.698A5.38 5.38 0 0 0 7.67 46.33a5.38 5.38 0 0 0 5.375 5.375 5.35 5.35 0 0 0 5.002-3.403.85.85 0 0 1 1.58.624 7.04 7.04 0 0 1-6.582 4.477M30.71 40.677a5.7 5.7 0 0 1-3.683-1.35.85.85 0 0 1 1.098-1.296c.721.611 1.64.948 2.585.948 2.206 0 4-1.795 4-4v-9.952c0-2.206-1.794-4-4-4a4 4 0 0 0-2.752 1.096.85.85 0 0 1-1.167-1.233 5.68 5.68 0 0 1 3.92-1.562 5.705 5.705 0 0 1 5.697 5.699v9.952a5.704 5.704 0 0 1-5.698 5.698"/><path fill="#615efc" d="M47.58 36.848a.85.85 0 0 1-.6-.249l-2.898-2.898a1.24 1.24 0 0 0-.87-.362h-7.654a.85.85 0 0 1 0-1.698h7.653c.771 0 1.526.313 2.072.86l2.898 2.897a.849.849 0 0 1-.6 1.45M35.92 14.827h-5.208a.85.85 0 0 1 0-1.698h5.208c.324 0 .645-.131.88-.36l4.723-4.723a.849.849 0 1 1 1.201 1.2l-4.732 4.732a3 3 0 0 1-2.072.849M40.3 27.82a.85.85 0 0 1-.849-.85v-4.188c0-.786.317-1.544.869-2.08l1.642-1.654a.849.849 0 1 1 1.205 1.196l-1.653 1.664c-.236.23-.365.544-.365.874v4.189a.85.85 0 0 1-.849.849"/><path fill="#615efc" d="M43.942 10.214a3.533 3.533 0 0 1-3.53-3.529 3.533 3.533 0 0 1 3.53-3.529 3.533 3.533 0 0 1 3.528 3.53 3.533 3.533 0 0 1-3.528 3.528m0-5.36c-1.01 0-1.832.822-1.832 1.831a1.832 1.832 0 0 0 3.662 0c0-1.01-.821-1.83-1.83-1.83m3.118 22.972H35.558a.85.85 0 0 1 0-1.699H47.06c.344 0 .673-.143.904-.394l3.727-4.01a.849.849 0 1 1 1.244 1.156l-3.725 4.008a2.93 2.93 0 0 1-2.15.939"/><path fill="#615efc" d="M54 23.738a3.533 3.533 0 0 1-3.53-3.53A3.533 3.533 0 0 1 54 16.68a3.533 3.533 0 0 1 3.529 3.529 3.533 3.533 0 0 1-3.53 3.529m0-5.36c-1.01 0-1.831.821-1.831 1.83s.821 1.831 1.83 1.831 1.831-.821 1.831-1.83-.821-1.831-1.83-1.831m-4.435 22.969a3.533 3.533 0 0 1-3.529-3.529 3.533 3.533 0 0 1 3.529-3.529 3.533 3.533 0 0 1 3.529 3.529 3.533 3.533 0 0 1-3.529 3.529m0-5.36a1.83 1.83 0 1 0 .002 3.658 1.83 1.83 0 0 0-.002-3.657M44.295 21.12a3.533 3.533 0 0 1-3.53-3.529 3.533 3.533 0 0 1 3.53-3.529 3.533 3.533 0 0 1 3.528 3.53 3.533 3.533 0 0 1-3.529 3.528m0-5.36c-1.01 0-1.831.822-1.831 1.831 0 1.01.821 1.831 1.83 1.831s1.831-.821 1.831-1.83-.821-1.831-1.83-1.831m-5.318 36.48a.85.85 0 0 1-.6-.249l-1.664-1.663a2.95 2.95 0 0 1-.86-2.073v-4.188a.85.85 0 0 1 1.698 0v4.188c0 .324.132.641.362.872l1.664 1.664a.849.849 0 0 1-.6 1.45"/><path fill="#615efc" d="M48.723 49.592a.85.85 0 0 1-.622-.27l-3.736-4.02a1.24 1.24 0 0 0-.907-.385H29.694a.85.85 0 0 1 0-1.698H43.46c.82 0 1.582.328 2.145.922l3.74 4.024a.85.85 0 0 1-.62 1.427"/><path fill="#615efc" d="M50.4 54.363a3.533 3.533 0 0 1-3.529-3.53 3.533 3.533 0 0 1 3.529-3.528 3.533 3.533 0 0 1 3.529 3.529 3.533 3.533 0 0 1-3.529 3.528m0-5.36a1.832 1.832 0 0 0 0 3.661 1.832 1.832 0 0 0 0-3.661m-9.705 7.986a3.533 3.533 0 0 1-3.529-3.529 3.533 3.533 0 0 1 3.529-3.53 3.533 3.533 0 0 1 3.53 3.53 3.533 3.533 0 0 1-3.53 3.529m0-5.36a1.832 1.832 0 0 0 0 3.661 1.832 1.832 0 0 0 0-3.661M17.644 35.594a.85.85 0 0 1-.849-.85v-7.01a2.32 2.32 0 0 0-2.317-2.317 2.32 2.32 0 0 0-2.317 2.317v7.01a.85.85 0 0 1-1.698 0v-7.01a4.02 4.02 0 0 1 4.015-4.015 4.02 4.02 0 0 1 4.015 4.015v7.01a.85.85 0 0 1-.849.85"/><path fill="#615efc" d="M17.644 31.065h-6.332a.85.85 0 0 1 0-1.698h6.332a.85.85 0 0 1 0 1.698m4.916 4.524a.85.85 0 0 1-.85-.85v-9.882a.85.85 0 0 1 1.699 0v9.883a.85.85 0 0 1-.85.849"/><path fill="#615efc" d="M24.338 25.706H20.78a.85.85 0 0 1 0-1.698h3.557a.85.85 0 0 1 0 1.698m.001 9.883H20.78a.85.85 0 0 1 0-1.698h3.557a.85.85 0 0 1 0 1.698"/></svg>
